public/illustrations/_computer.svg

<svg width="282" height="268" viewBox="0 0 282 268" fill="none" xmlns="http://www.w3.org/2000/svg">
<path d="M107.172 212.295C101.026 212.331 95.3198 212.288 89.4725 212.229L14.8876 212.436C12.8908 212.449 10.7382 212.459 8.74143 212.472C3.16059 212.587 0.351977 210.067 0.095456 204.47C-0.114975 199.582 0.0985334 194.756 0.0292521 189.898C0.183649 166.211 0.180576 142.634 0.320815 118.946C0.439173 97.6793 0.527191 76.5537 0.645548 55.2869C0.783586 40.3075 0.780098 25.3118 0.793041 10.1748C0.852576 3.32212 4.45918 -0.192547 11.2814 0.0081374C24.2337 0.30008 37.2161 0.465034 50.1826 0.757187C62.5835 0.984282 75.0958 1.35463 87.4968 1.58173C99.8978 1.80882 112.158 2.0055 124.403 2.20196C134.383 2.39301 144.35 2.5697 154.471 2.77702C166.872 3.00412 179.4 3.2331 191.801 3.4602C201.781 3.65125 211.748 3.82794 221.869 4.03526C232.118 4.25863 242.397 4.34086 252.645 4.56423C258.493 4.62296 264.418 5.13598 270.312 4.9122C278.361 4.55057 281.744 11.2845 280.946 17.319C279.527 27.9888 280.545 38.5533 280.414 49.2423C280.266 61.078 280.559 72.8353 280.552 84.6873C280.667 98.8491 280.798 112.855 280.913 127.017C280.933 140.88 281.081 154.745 281.087 168.608C281.08 180.46 281.231 192.201 281.366 204.07C281.389 209.21 279.198 211.783 274.057 211.806C265.034 212.039 256.043 211.976 247.163 212.085C234.73 212.14 222.312 212.069 209.879 212.124C203.01 212.206 196.298 212.177 189.46 212.118C188.044 212.068 186.724 212.318 185.278 212.424C183.787 219.368 183.57 226.332 184.923 233.376C185.456 234.729 186.428 236.003 187.919 236.635C191.641 238.701 195.583 240.232 199.131 242.55C201.627 244.174 203.792 246.174 205.471 248.535C208.809 253.555 207.038 259.321 201.782 262.329C197.643 264.491 193.067 265.598 188.478 265.699C168.545 266.337 148.723 267.118 128.823 267.474C118.228 267.642 107.431 267.198 96.7904 266.643C92.9868 266.275 89.2155 265.638 85.4769 264.704C84.4876 264.576 83.5616 264.024 82.6352 263.472C76.7159 259.689 76.5413 252.379 82.6154 248.618C87.4473 245.547 92.5457 242.649 97.7527 240.064C100.191 238.954 102.269 237.243 103.688 235.14C105.123 232.91 106.024 230.445 106.107 227.742C106.478 222.791 106.816 218.123 107.125 212.591L107.157 212.309L107.172 212.295ZM10.5637 163.307L271.276 160.858C270.911 112.099 270.658 63.5121 270.263 14.8944L11.3408 10.3035C11.0877 61.5453 10.8972 112.378 10.6908 163.337L10.5491 163.335L10.5637 163.307ZM10.3802 202.273L271.434 201.585C271.375 191.29 271.253 181.419 271.178 171.265L10.3569 173.414C10.3376 183.269 10.242 192.543 10.239 202.256L10.3804 202.259L10.3802 202.273ZM174.054 212.058L117.907 212.157L117.047 218.616C116.521 222.544 116.419 226.536 115.893 230.465C115.414 234.111 114.214 237.675 112.102 240.674C109.99 243.673 107.234 246.167 103.883 247.717C100.815 249.314 97.731 251.038 94.8041 252.651C93.7337 253.216 92.7739 253.952 91.0588 255.017C92.0177 255.286 92.9908 255.555 93.966 255.683C106.478 256.068 118.814 256.846 131.248 256.79C149.843 256.557 168.377 255.729 187.036 255.072C190.196 254.921 193.481 254.927 196.77 252.796C195.325 251.882 194.29 251.031 193.097 250.305C189.894 248.601 186.58 246.725 183.203 245.273C180.752 244.373 178.555 242.655 177.129 240.467C175.562 238.263 174.764 235.731 174.832 233.027C174.593 226.283 174.339 219.539 174.07 211.931L174.068 212.073L174.054 212.058Z" fill="#102185"/>
<path d="M58.412 88.1207L76.5219 95.8102C84.6423 99.1738 92.8876 102.695 101.008 106.073C102.358 106.688 103.709 107.288 105.012 108.171C105.781 108.848 106.534 109.653 106.674 110.674C106.97 111.712 106.812 112.829 106.401 113.785C105.991 114.742 105.298 115.638 104.385 116.092C103.455 116.687 102.434 116.827 101.303 116.683C100.314 116.555 99.3548 116.286 98.4122 115.875C82.8478 109.371 67.1418 102.864 51.6241 96.0768C49.6138 95.0981 47.8098 93.5703 46.3351 91.8066C43.7631 88.6106 44.2884 85.6731 47.3572 83.085C48.0179 82.4577 48.7896 81.9877 49.5613 81.5177C62.8295 72.0014 76.2085 62.6425 89.4767 53.1261C90.7514 52.1539 91.9796 51.4641 93.5045 50.8072C94.5749 50.2425 95.7379 50.1041 96.8381 50.3895C97.9547 50.5336 98.9901 51.3844 99.585 52.3279C100.18 53.2713 100.445 54.4364 100.285 55.7084C100.124 56.9804 99.5587 57.8924 98.7383 58.7865C97.5887 59.9163 96.4714 60.7776 95.1966 61.7498C84.1627 69.5719 73.256 77.3959 62.2221 85.2179C61.2463 86.0813 60.1287 86.9426 58.3813 88.276L58.3834 88.1344L58.412 88.1207Z" fill="#102185"/>
<path d="M219.752 85.4386C217.616 84.3023 216.155 83.5301 214.679 82.7576C202.525 76.4312 190.387 69.9492 178.091 63.6065C176.757 62.8644 175.454 61.9671 174.435 60.9749C173.666 60.2979 173.212 59.3849 173.213 58.3795C173.058 57.3577 173.328 56.3988 173.722 55.5976C174.132 54.6549 174.793 54.0276 175.706 53.5739C176.619 53.1202 177.641 52.9796 178.472 53.2327C180.013 53.4397 181.504 54.0708 182.855 54.6715C197.427 62.1809 211.969 69.8315 226.525 77.4823C227.859 78.2243 229.163 79.1217 230.152 80.255C234.497 85.12 234.018 88.7662 228.558 92.1825C214.285 100.707 199.854 109.356 185.426 117.864C184.026 118.679 182.515 119.336 180.879 119.835C179.841 120.132 178.836 120.131 177.893 119.72C176.951 119.31 176.182 118.633 175.587 117.703C174.992 116.774 174.851 115.753 174.979 114.763C175.107 113.774 175.659 112.848 176.336 112.093C177.485 110.963 178.603 110.102 179.988 109.301C191.932 102.172 203.876 95.0577 215.804 88.0702C216.905 87.3645 217.85 86.6281 219.707 85.5937L219.709 85.4521L219.752 85.4386Z" fill="#102185"/>
<path d="M169.096 41.0009C168.685 41.9436 168.242 43.1689 167.486 44.5029C152.277 74.0411 137.038 103.721 121.688 133.257C121.103 134.466 120.394 135.517 119.559 136.397C118.866 137.307 117.812 137.73 116.774 138.026C115.611 138.151 114.494 138.007 113.568 137.455C112.641 136.903 111.889 136.084 111.466 135.03C111.043 133.976 110.904 132.813 111.315 131.87C111.616 130.629 112.215 129.42 112.783 128.352C127.976 98.9552 143.027 69.5279 158.217 40.2726C158.832 38.9224 159.716 37.6186 160.724 36.4583C161.401 35.6896 162.33 35.0946 163.352 34.954C164.374 34.7993 165.49 34.9575 166.432 35.368C168.443 36.3467 169.178 38.3117 169.11 41.0153L169.096 41.0009Z" fill="#102185"/>
</svg>

<svg xmlns="http://www.w3.org/2000/svg" width="282" height="268" fill="none" viewBox="0 0 282 268"><path fill="#102185" d="M107.172 212.295c-6.146.036-11.852-.007-17.7-.066l-74.584.207c-1.997.013-4.15.023-6.147.036-5.58.115-8.389-2.405-8.646-8.002-.21-4.888.004-9.714-.066-14.572.155-23.687.152-47.264.292-70.952.118-21.267.206-42.392.325-63.66.138-14.979.134-29.974.147-45.111C.853 3.322 4.459-.193 11.281.008 24.234.3 37.216.465 50.183.758c12.4.226 24.913.597 37.314.824s24.661.424 36.906.62c9.98.191 19.947.368 30.068.575l37.33.683c9.98.191 19.947.368 30.068.575 10.249.224 20.528.306 30.776.53 5.848.058 11.773.571 17.667.347 8.049-.361 11.432 6.373 10.634 12.407-1.419 10.67-.401 21.234-.532 31.923-.148 11.836.145 23.593.138 35.445.115 14.162.246 28.168.361 42.33.02 13.863.168 27.728.174 41.591-.007 11.852.144 23.593.279 35.462.023 5.14-2.168 7.713-7.309 7.736-9.023.233-18.014.17-26.894.279-12.433.055-24.851-.016-37.284.039-6.869.082-13.581.053-20.419-.006-1.416-.05-2.736.2-4.182.306-1.491 6.944-1.708 13.908-.355 20.952.533 1.353 1.505 2.627 2.996 3.259 3.722 2.066 7.664 3.597 11.212 5.915 2.496 1.624 4.661 3.624 6.34 5.985 3.338 5.02 1.567 10.786-3.689 13.794-4.139 2.162-8.715 3.269-13.304 3.37-19.933.638-39.755 1.419-59.655 1.775-10.595.168-21.392-.276-32.033-.831a77 77 0 0 1-11.313-1.939c-.99-.128-1.915-.68-2.842-1.232-5.92-3.783-6.094-11.093-.02-14.854a166 166 0 0 1 15.138-8.554c2.438-1.11 4.516-2.821 5.935-4.924 1.435-2.23 2.336-4.695 2.419-7.398.371-4.951.709-9.619 1.018-15.151l.032-.282zm-96.608-48.988 260.712-2.449c-.365-48.759-.618-97.346-1.013-145.964l-258.922-4.59c-.253 51.241-.444 102.074-.65 153.033l-.142-.002zm-.184 38.966 261.054-.688c-.059-10.295-.181-20.166-.256-30.32l-260.821 2.149c-.02 9.855-.115 19.129-.118 28.842l.141.003zm163.674 9.785-56.147.099-.86 6.459c-.526 3.928-.628 7.92-1.154 11.849-.479 3.646-1.679 7.21-3.791 10.209s-4.868 5.493-8.219 7.043c-3.068 1.597-6.152 3.321-9.079 4.934-1.07.565-2.03 1.301-3.745 2.366.959.269 1.932.538 2.907.666 12.512.385 24.848 1.163 37.282 1.107 18.595-.233 37.129-1.061 55.788-1.718 3.16-.151 6.445-.145 9.734-2.276-1.445-.914-2.48-1.765-3.673-2.491-3.203-1.704-6.517-3.58-9.894-5.032-2.451-.9-4.648-2.618-6.074-4.806-1.567-2.204-2.365-4.736-2.297-7.44-.239-6.744-.493-13.488-.762-21.096l-.002.142z"/><path fill="#102185" d="m58.412 88.12 18.11 7.69c8.12 3.364 16.366 6.885 24.486 10.263 1.35.615 2.701 1.215 4.004 2.098.769.677 1.522 1.482 1.662 2.503.296 1.038.138 2.155-.273 3.111-.41.957-1.103 1.853-2.016 2.307-.93.595-1.951.735-3.082.591a10.6 10.6 0 0 1-2.89-.808c-15.565-6.504-31.271-13.011-46.789-19.798-2.01-.979-3.814-2.507-5.289-4.27-2.572-3.196-2.047-6.134 1.022-8.722.66-.627 1.433-1.097 2.204-1.567C62.83 72 76.21 62.642 89.477 53.126c1.274-.972 2.503-1.662 4.027-2.319 1.07-.565 2.234-.703 3.334-.418 1.117.145 2.152.995 2.747 1.939.595.943.86 2.108.7 3.38s-.726 2.184-1.547 3.078c-1.15 1.13-2.267 1.992-3.541 2.964-11.034 7.822-21.941 15.646-32.975 23.468-.976.863-2.093 1.725-3.84 3.058l.001-.142zM219.752 85.439a820 820 0 0 0-5.073-2.681c-12.154-6.327-24.292-12.809-36.588-19.151-1.334-.743-2.637-1.64-3.656-2.632-.769-.677-1.223-1.59-1.222-2.596-.155-1.021.115-1.98.509-2.781.41-.943 1.071-1.57 1.984-2.024s1.935-.594 2.766-.341c1.541.207 3.032.838 4.383 1.439 14.572 7.509 29.114 15.16 43.67 22.81 1.334.742 2.638 1.64 3.627 2.773 4.345 4.865 3.866 8.511-1.594 11.928-14.273 8.524-28.704 17.173-43.132 25.681a21.4 21.4 0 0 1-4.547 1.971c-1.038.297-2.043.296-2.986-.115-.942-.41-1.711-1.087-2.306-2.017s-.736-1.95-.608-2.94c.128-.989.68-1.915 1.357-2.67a17.5 17.5 0 0 1 3.652-2.792c11.944-7.129 23.888-14.243 35.816-21.23 1.101-.706 2.046-1.443 3.903-2.477l.002-.142zM169.096 41c-.411.944-.854 2.169-1.61 3.503-15.209 29.538-30.448 59.218-45.798 88.754-.585 1.209-1.294 2.26-2.129 3.14-.693.91-1.747 1.333-2.785 1.629-1.163.125-2.28-.019-3.206-.571s-1.679-1.371-2.102-2.425-.562-2.217-.151-3.16c.301-1.241.9-2.45 1.468-3.518 15.193-29.397 30.244-58.824 45.434-88.08.615-1.35 1.499-2.653 2.507-3.814.677-.768 1.606-1.363 2.628-1.504a5.75 5.75 0 0 1 3.08.414c2.011.979 2.746 2.944 2.678 5.647z"/></svg>
